X: 1
T: Hussey's Penguin
C: \251 B.Black
S: Bill Black <Zouki@AOL.COM> irtrad-l 2001-4-14
L: 1/8
Q: 350
M: 4/4
R: reel
K: D
F2 BA FEDE | FDB,D FBBA | F2 AF GABd | cege dcBA |
F2 BA FEDE | FEDB, A,DDF | AGFA dfec | dBAF D4 :|
ABde faa^g | abaf efdB | ABde faa^g | abaf e2 dB |
ABde faaf | gefd efge | fa a2 bafe | dfec d4 :|
